X:14
T:Mazurka de Gaëlle
C:Gaëlle
R:mazurka
M:3/4
L:1/8
K:Amin
A2 c>B c>A | E2B2G2 | A2c>B c>A | G2B2c2 | A2 c>B c>A | E2B2G2 | A>B c>d e>d |c2B2 E>G ::
A2 e>d e>c | B2 d2e2 | A2 e>d e>c | d>e d>c B>c | A2 e>d e>c | B2d2e2 |
g>f e>c d>e | f>e d>c B>c | A2 e>d e>c | B2d2e2 | A2 e>de>c | B2d2e2 |
g>f e>c d>e | f>e d>c B>A | G>F E>G A>B | c>d B2A2 |]
